packages/kaspersky-hexa-ui-icons/src/iconsSVGs/32/StatusOKSolid.svg

<svg xmlns="http://www.w3.org/2000/svg" width="32" height="32" fill="none" viewBox="0 0 32 32"><path fill="#000" fill-rule="evenodd" d="M16 30c7.732 0 14-6.268 14-14S23.732 2 16 2 2 8.268 2 16s6.268 14 14 14m5.7071-16.2929c.3905-.3905.3905-1.0237 0-1.4142s-1.0237-.3905-1.4142 0L15 17.5858l-2.2929-2.2929c-.3905-.3905-1.0237-.3905-1.4142 0s-.3905 1.0237 0 1.4142l3 3c.3905.3905 1.0237.3905 1.4142 0z"/></svg>

<svg width="32" height="32" viewBox="0 0 32 32" fill="none" xmlns="http://www.w3.org/2000/svg">
<path fill-rule="evenodd" clip-rule="evenodd" d="M16 30C23.732 30 30 23.732 30 16C30 8.26801 23.732 2 16 2C8.26801 2 2 8.26801 2 16C2 23.732 8.26801 30 16 30ZM21.7071 13.7071C22.0976 13.3166 22.0976 12.6834 21.7071 12.2929C21.3166 11.9024 20.6834 11.9024 20.2929 12.2929L15 17.5858L12.7071 15.2929C12.3166 14.9024 11.6834 14.9024 11.2929 15.2929C10.9024 15.6834 10.9024 16.3166 11.2929 16.7071L14.2929 19.7071C14.6834 20.0976 15.3166 20.0976 15.7071 19.7071L21.7071 13.7071Z" fill="black"/>
</svg>
